world_stage/static/flags/rect/stp.svg

<svg height="1866.6667" viewBox="0 0 2800 1866.6667" width="2800" xmlns="http://www.w3.org/2000/svg"><path d="m0 0h2100v1400h-2100z" fill="#12ad2b" transform="matrix(1.3333333 0 0 -1.3333333 0 1866.6667)"/><path d="m0 400h2100v600h-2100z" fill="#ffce00" transform="matrix(1.3333333 0 0 -1.3333333 0 1866.6667)"/><path d="m0 0v-1400l700 700z" fill="#d21034" transform="matrix(1.3333333 0 0 -1.3333333 0 -.000533)"/><path d="m0 0-57.647-177.42 88.71-28.824" transform="matrix(1.3333333 0 0 -1.3333333 1364.1303 686.65693)"/><path d="m0 0 57.647-177.42-88.709-28.824" transform="matrix(1.3333333 0 0 -1.3333333 1364.1303 686.65693)"/><path d="m0 0h-186.551v-93.275" transform="matrix(1.3333333 0 0 -1.3333333 1600.6908 858.528)"/><path d="m0 0-150.923-109.652-54.826 75.462" transform="matrix(1.3333333 0 0 -1.3333333 1600.6908 858.528)"/><path d="m0 0-57.647 177.42-88.71-28.823" transform="matrix(1.3333333 0 0 -1.3333333 1510.3327 1136.6211)"/><path d="m0 0-150.923 109.651 54.826 75.462" transform="matrix(1.3333333 0 0 -1.3333333 1510.3327 1136.6211)"/><path d="m0 0 150.923 109.651-54.826 75.462" transform="matrix(1.3333333 0 0 -1.3333333 1217.9277 1136.6211)"/><path d="m0 0 57.647 177.42 88.711-28.823" transform="matrix(1.3333333 0 0 -1.3333333 1217.9277 1136.6211)"/><path d="m0 0 150.923-109.652 54.826 75.462" transform="matrix(1.3333333 0 0 -1.3333333 1127.5696 858.528)"/><path d="m0 0h186.551v-93.275" transform="matrix(1.3333333 0 0 -1.3333333 1127.5696 858.528)"/><path d="m0 0-57.647-177.42 88.709-28.824" transform="matrix(1.3333333 0 0 -1.3333333 2234.7005 686.65693)"/><path d="m0 0 57.647-177.42-88.709-28.824" transform="matrix(1.3333333 0 0 -1.3333333 2234.7005 686.65693)"/><path d="m0 0h-186.551v-93.275" transform="matrix(1.3333333 0 0 -1.3333333 2471.2617 858.528)"/><path d="m0 0-150.923-109.652-54.826 75.462" transform="matrix(1.3333333 0 0 -1.3333333 2471.2617 858.528)"/><path d="m0 0-57.647 177.42-88.711-28.823" transform="matrix(1.3333333 0 0 -1.3333333 2380.9036 1136.6211)"/><path d="m0 0-150.923 109.651 54.825 75.462" transform="matrix(1.3333333 0 0 -1.3333333 2380.9036 1136.6211)"/><path d="m0 0 150.923 109.651-54.826 75.462" transform="matrix(1.3333333 0 0 -1.3333333 2088.4987 1136.6211)"/><path d="m0 0 57.647 177.42 88.71-28.823" transform="matrix(1.3333333 0 0 -1.3333333 2088.4987 1136.6211)"/><g transform="matrix(1.3333333 0 0 -1.3333333 1998.1407 858.528)"><path d="m0 0 150.923-109.652 54.825 75.462"/><path d="m0 0h186.551v-93.275"/></g></svg>

<?xml version="1.0" encoding="UTF-8" standalone="no"?>
<!-- Created with Inkscape (http://www.inkscape.org/) -->

<svg
   version="1.1"
   id="svg1"
   width="2800"
   height="1866.6667"
   viewBox="0 0 2800 1866.6667"
   sodipodi:docname="st.ai"
   xmlns:inkscape="http://www.inkscape.org/namespaces/inkscape"
   xmlns:sodipodi="http://sodipodi.sourceforge.net/DTD/sodipodi-0.dtd"
   xmlns="http://www.w3.org/2000/svg"
   xmlns:svg="http://www.w3.org/2000/svg">
  <defs
     id="defs1" />
  <sodipodi:namedview
     id="namedview1"
     pagecolor="#ffffff"
     bordercolor="#000000"
     borderopacity="0.25"
     inkscape:showpageshadow="2"
     inkscape:pageopacity="0.0"
     inkscape:pagecheckerboard="0"
     inkscape:deskcolor="#d1d1d1">
    <inkscape:page
       x="0"
       y="0"
       inkscape:label="1"
       id="page1"
       width="2800"
       height="1866.6667"
       margin="0"
       bleed="0" />
  </sodipodi:namedview>
  <g
     id="layer-MC0"
     inkscape:groupmode="layer"
     inkscape:label="Layer 1">
    <path
       id="path1"
       d="M 0,0 H 2100 V 1400 H 0 Z"
       style="fill:#12ad2b;fill-opacity:1;fill-rule:nonzero;stroke:none"
       transform="matrix(1.3333333,0,0,-1.3333333,0,1866.6667)" />
    <path
       id="path2"
       d="m 0,400 h 2100 v 600 H 0 Z"
       style="fill:#ffce00;fill-opacity:1;fill-rule:nonzero;stroke:none"
       transform="matrix(1.3333333,0,0,-1.3333333,0,1866.6667)" />
    <path
       id="path3"
       d="m 0,0 v -1400 l 700,700 z"
       style="fill:#d21034;fill-opacity:1;fill-rule:nonzero;stroke:none"
       transform="matrix(1.3333333,0,0,-1.3333333,0,-5.3333333e-4)" />
    <path
       id="path4"
       d="m 0,0 -57.647,-177.42 88.71,-28.824"
       style="fill:#000000;fill-opacity:1;fill-rule:nonzero;stroke:none"
       transform="matrix(1.3333333,0,0,-1.3333333,1364.1303,686.65693)" />
    <path
       id="path5"
       d="m 0,0 57.647,-177.42 -88.709,-28.824"
       style="fill:#000000;fill-opacity:1;fill-rule:nonzero;stroke:none"
       transform="matrix(1.3333333,0,0,-1.3333333,1364.1303,686.65693)" />
    <path
       id="path6"
       d="M 0,0 H -186.551 V -93.275"
       style="fill:#000000;fill-opacity:1;fill-rule:nonzero;stroke:none"
       transform="matrix(1.3333333,0,0,-1.3333333,1600.6908,858.528)" />
    <path
       id="path7"
       d="m 0,0 -150.923,-109.652 -54.826,75.462"
       style="fill:#000000;fill-opacity:1;fill-rule:nonzero;stroke:none"
       transform="matrix(1.3333333,0,0,-1.3333333,1600.6908,858.528)" />
    <path
       id="path8"
       d="m 0,0 -57.647,177.42 -88.71,-28.823"
       style="fill:#000000;fill-opacity:1;fill-rule:nonzero;stroke:none"
       transform="matrix(1.3333333,0,0,-1.3333333,1510.3327,1136.6211)" />
    <path
       id="path9"
       d="m 0,0 -150.923,109.651 54.826,75.462"
       style="fill:#000000;fill-opacity:1;fill-rule:nonzero;stroke:none"
       transform="matrix(1.3333333,0,0,-1.3333333,1510.3327,1136.6211)" />
    <path
       id="path10"
       d="M 0,0 150.923,109.651 96.097,185.113"
       style="fill:#000000;fill-opacity:1;fill-rule:nonzero;stroke:none"
       transform="matrix(1.3333333,0,0,-1.3333333,1217.9277,1136.6211)" />
    <path
       id="path11"
       d="m 0,0 57.647,177.42 88.711,-28.823"
       style="fill:#000000;fill-opacity:1;fill-rule:nonzero;stroke:none"
       transform="matrix(1.3333333,0,0,-1.3333333,1217.9277,1136.6211)" />
    <path
       id="path12"
       d="m 0,0 150.923,-109.652 54.826,75.462"
       style="fill:#000000;fill-opacity:1;fill-rule:nonzero;stroke:none"
       transform="matrix(1.3333333,0,0,-1.3333333,1127.5696,858.528)" />
    <path
       id="path13"
       d="M 0,0 H 186.551 V -93.275"
       style="fill:#000000;fill-opacity:1;fill-rule:nonzero;stroke:none"
       transform="matrix(1.3333333,0,0,-1.3333333,1127.5696,858.528)" />
    <path
       id="path14"
       d="m 0,0 -57.647,-177.42 88.709,-28.824"
       style="fill:#000000;fill-opacity:1;fill-rule:nonzero;stroke:none"
       transform="matrix(1.3333333,0,0,-1.3333333,2234.7005,686.65693)" />
    <path
       id="path15"
       d="m 0,0 57.647,-177.42 -88.709,-28.824"
       style="fill:#000000;fill-opacity:1;fill-rule:nonzero;stroke:none"
       transform="matrix(1.3333333,0,0,-1.3333333,2234.7005,686.65693)" />
    <path
       id="path16"
       d="M 0,0 H -186.551 V -93.275"
       style="fill:#000000;fill-opacity:1;fill-rule:nonzero;stroke:none"
       transform="matrix(1.3333333,0,0,-1.3333333,2471.2617,858.528)" />
    <path
       id="path17"
       d="m 0,0 -150.923,-109.652 -54.826,75.462"
       style="fill:#000000;fill-opacity:1;fill-rule:nonzero;stroke:none"
       transform="matrix(1.3333333,0,0,-1.3333333,2471.2617,858.528)" />
    <path
       id="path18"
       d="m 0,0 -57.647,177.42 -88.711,-28.823"
       style="fill:#000000;fill-opacity:1;fill-rule:nonzero;stroke:none"
       transform="matrix(1.3333333,0,0,-1.3333333,2380.9036,1136.6211)" />
    <path
       id="path19"
       d="m 0,0 -150.923,109.651 54.825,75.462"
       style="fill:#000000;fill-opacity:1;fill-rule:nonzero;stroke:none"
       transform="matrix(1.3333333,0,0,-1.3333333,2380.9036,1136.6211)" />
    <path
       id="path20"
       d="M 0,0 150.923,109.651 96.097,185.113"
       style="fill:#000000;fill-opacity:1;fill-rule:nonzero;stroke:none"
       transform="matrix(1.3333333,0,0,-1.3333333,2088.4987,1136.6211)" />
    <path
       id="path21"
       d="m 0,0 57.647,177.42 88.71,-28.823"
       style="fill:#000000;fill-opacity:1;fill-rule:nonzero;stroke:none"
       transform="matrix(1.3333333,0,0,-1.3333333,2088.4987,1136.6211)" />
    <path
       id="path22"
       d="m 0,0 150.923,-109.652 54.825,75.462"
       style="fill:#000000;fill-opacity:1;fill-rule:nonzero;stroke:none"
       transform="matrix(1.3333333,0,0,-1.3333333,1998.1407,858.528)" />
    <path
       id="path23"
       d="M 0,0 H 186.551 V -93.275"
       style="fill:#000000;fill-opacity:1;fill-rule:nonzero;stroke:none"
       transform="matrix(1.3333333,0,0,-1.3333333,1998.1407,858.528)" />
  </g>
</svg>
